svg/fluentui-system-icons/ic_fluent_vehicle_subway_20_regular.svg

<svg width="20" height="20" viewBox="0 0 20 20" fill="none" xmlns="http://www.w3.org/2000/svg">
<path d="M8.00024 14C8.00024 14.5523 7.55253 15 7.00024 15C6.44796 15 6.00024 14.5523 6.00024 14C6.00024 13.4477 6.44796 13 7.00024 13C7.55253 13 8.00024 13.4477 8.00024 14ZM13.0002 15C13.5525 15 14.0002 14.5523 14.0002 14C14.0002 13.4477 13.5525 13 13.0002 13C12.448 13 12.0002 13.4477 12.0002 14C12.0002 14.5523 12.448 15 13.0002 15ZM8.50024 5C8.2241 5 8.00024 5.22386 8.00024 5.5C8.00024 5.77614 8.2241 6 8.50024 6H11.5002C11.7764 6 12.0002 5.77614 12.0002 5.5C12.0002 5.22386 11.7764 5 11.5002 5H8.50024ZM3.00024 6C3.00024 4.34315 4.34339 3 6.00024 3H14.0002C15.6571 3 17.0002 4.34315 17.0002 6V14C17.0002 15.5492 15.8259 16.8242 14.3188 16.9833L16.7034 18.0431C16.9558 18.1552 17.0694 18.4507 16.9573 18.7031C16.8451 18.9554 16.5496 19.0691 16.2973 18.9569L11.8943 17H8.10624L3.70319 18.9569C3.45085 19.0691 3.15537 18.9554 3.04322 18.7031C2.93107 18.4507 3.04471 18.1552 3.29706 18.0431L5.68164 16.9833C4.17457 16.8242 3.00024 15.5492 3.00024 14V6ZM12.0117 16H14.0002C15.1048 16 16.0002 15.1046 16.0002 14V12H4.00024V14C4.00024 15.1046 4.89567 16 6.00024 16H7.98881C7.99618 15.9998 8.00354 15.9998 8.01089 16H11.9896C11.9969 15.9998 12.0043 15.9998 12.0117 16ZM4.00024 6V11H16.0002V6C16.0002 4.89543 15.1048 4 14.0002 4H6.00024C4.89567 4 4.00024 4.89543 4.00024 6Z" fill="#212121"/>
</svg>

<svg xmlns="http://www.w3.org/2000/svg" width="20" height="20"><path d="M8 14a1 1 0 1 1-2 0 1 1 0 0 1 2 0Zm5 1a1 1 0 1 0 0-2 1 1 0 0 0 0 2ZM8.5 5a.5.5 0 0 0 0 1h3a.5.5 0 1 0 0-1h-3ZM3 6a3 3 0 0 1 3-3h8a3 3 0 0 1 3 3v8a3 3 0 0 1-2.681 2.983l2.384 1.06a.5.5 0 1 1-.406.914L11.894 17H8.106l-4.403 1.957a.5.5 0 1 1-.406-.914l2.385-1.06A3 3 0 0 1 3 14V6Zm9.012 10H14a2 2 0 0 0 2-2v-2H4v2a2 2 0 0 0 2 2h6.012ZM4 6v5h12V6a2 2 0 0 0-2-2H6a2 2 0 0 0-2 2Z"/></svg>
